images/vk.svg

<svg width="26" height="15" viewBox="0 0 26 15" fill="none" xmlns="http://www.w3.org/2000/svg">
<path fill-rule="evenodd" clip-rule="evenodd" d="M10.1233 0.495628C9.78875 0.626579 9.30657 1.05808 9.30657 1.22654C9.30657 1.30237 9.41274 1.36434 9.54243 1.36434C9.67229 1.36434 9.97006 1.52953 10.2041 1.73126C10.7709 2.21967 11.0205 3.88941 10.7962 5.69288C10.6105 7.18584 10.3836 7.50955 9.73125 7.21291C9.15564 6.95101 7.71808 4.79237 6.76907 2.76468C6.21682 1.58482 5.92803 1.15087 5.61703 1.03264C5.07654 0.827491 1.93664 0.828632 1.39517 1.03411C1.15293 1.12608 0.976196 1.32096 0.976196 1.4961C0.976196 1.6626 1.58268 3.00701 2.32376 4.48334C5.41138 10.6341 8.10128 13.5356 11.4452 14.3224C12.8249 14.6471 15.0772 14.6572 15.341 14.34C15.4479 14.2115 15.5991 13.6554 15.677 13.1045C15.7551 12.5535 15.9356 11.9247 16.0783 11.7073C16.5241 11.0279 16.9596 11.2044 18.3331 12.6207C20.2391 14.5858 20.2058 14.5722 23.117 14.5729C25.7597 14.5735 25.9673 14.5135 25.9673 13.7484C25.9673 13.1256 25.3396 12.2732 23.5002 10.398C22.6112 9.49158 21.8838 8.66234 21.8838 8.55519C21.8838 8.21061 22.3209 7.52047 23.7529 5.60433C25.9498 2.66455 26.455 1.37836 25.5483 1.03411C25.0137 0.831241 20.975 0.825532 20.5977 1.0271C20.4412 1.11075 19.8242 2.15656 19.2266 3.35094C18.0244 5.75387 16.8496 7.28613 16.2732 7.20296C15.6492 7.11311 15.5184 6.51185 15.516 3.71933C15.514 1.72001 15.4588 1.02563 15.2821 0.783949C15.0736 0.499054 14.816 0.463992 12.7094 0.433497C11.4218 0.414906 10.258 0.442792 10.1233 0.495628Z" fill="#F5F5F6"/>
</svg>

<svg width="26" height="15" fill="none" xmlns="http://www.w3.org/2000/svg"><path fill-rule="evenodd" clip-rule="evenodd" d="M10.123.496c-.334.13-.816.562-.816.73 0 .076.106.138.235.138.13 0 .428.166.662.367.567.489.816 2.158.592 3.962-.185 1.493-.412 1.817-1.065 1.52-.575-.262-2.013-2.42-2.962-4.448-.552-1.18-.841-1.614-1.152-1.732-.54-.206-3.68-.204-4.222.001-.242.092-.419.287-.419.462 0 .167.607 1.511 1.348 2.987 3.087 6.151 5.777 9.053 9.121 9.84 1.38.324 3.632.334 3.896.017.107-.129.258-.685.336-1.236.078-.55.259-1.18.401-1.397.446-.68.882-.503 2.255.914 1.906 1.965 1.873 1.951 4.784 1.952 2.643 0 2.85-.06 2.85-.825 0-.622-.627-1.475-2.467-3.35-.889-.906-1.616-1.736-1.616-1.843 0-.344.437-1.035 1.869-2.95 2.197-2.94 2.702-4.227 1.795-4.57-.534-.204-4.573-.21-4.95-.008-.157.084-.774 1.13-1.371 2.324-1.203 2.403-2.377 3.935-2.954 3.852-.624-.09-.755-.691-.757-3.484-.002-1.999-.057-2.693-.234-2.935-.208-.285-.466-.32-2.573-.35-1.287-.02-2.451.009-2.586.062z" fill="#F5F5F6"/></svg>
